X:1
T:Title
%%score { 1 | 2 }
L:1/8
Q:1/4=100
M:6/8
K:C
V:1 treble nm="Grand Piano"
V:2 bass 
V:1
 [CE]2 [EG] [Ec]2 [Fd] | [Fc]3 [FB]2 [Gc] | [GB]2 A A2 ^G |[M:5/8] A-A- A3 |[M:1/8] D | %5
w: James~McGranahan * * *|||||
[M:3/4] D2 E F2 G | [DFB]2 [DFB] [DFB]2 [B,FA] | [FA]2 [EG] [EG]2 [_E^F] | [EG]6 | CE G c2 e | %10
w: |||||
 [^Ge]3 [Gd]2 [Ac] | [GB]2 AA A2 |[M:5/8] [^Fd]-[Fd]- [Fd]3 |[M:1/8] [^Fc] | %14
w: ||||
[M:3/4] [GB]2 [Bf] [DBf]2 [FA] |[M:7/8] [EG]2 [Ge] [Ge]3 [Ec] |[M:3/4] [DB]2 [DB] [Fd]3 | [Ec]6 |] %18
w: ||||
V:2
 [C,G,]2 [C,C] [C,G,]2 [C,G,] | [D,G,]3 [D,G,]2 [E,C] | [F,C]2 [F,CF] [F,CF]2 [F,CF] | %3
[M:5/8] [F,CF]-[F,CF]- [F,CF]3 |[M:1/8] [F,G,B,] |[M:3/4] [F,G,B,]2 [E,G,C] [D,G,D]2 [D,B,D] | %6
 G,,2 G,, G,,2 G,, | [C,C]2 [C,C] [C,C]2 [C,C] | [C,C]6 | C,E, G,[K:treble] [A,CE]2 [A,CA] | %10
 [E,B,]3 [E,B,]2 [E,C] | [F,C]2 [F,CF][F,CF] [F,A,F]2 |[M:5/8] [D,A,]-[D,A,]- [D,A,]3 | %13
[M:1/8] [D,D] |[M:3/4] [G,D]2 [G,D]G,, A,,[B,,G,] |[M:7/8] [C,C]2 [C,C] [C,C]3 [C,G,] | %16
[M:3/4] [G,,G,]2 [G,,G,] [G,,G,]3 | [C,G,]6 |] %18

